assets/Label/Flat/label_flat.svg

<svg width="32" height="32" viewBox="0 0 32 32" fill="none" xmlns="http://www.w3.org/2000/svg">
<path d="M25.34 7.68398C23.2959 7.68398 21.6389 9.34099 21.6389 11.385C21.6389 13.4291 23.2959 15.0861 25.34 15.0861C27.384 15.0861 29.041 13.4291 29.041 11.385C29.041 9.34099 27.384 7.68398 25.34 7.68398ZM20.621 11.385C20.621 8.77882 22.7338 6.66608 25.34 6.66608C27.9462 6.66608 30.0589 8.77882 30.0589 11.385C30.0589 13.9912 27.9462 16.104 25.34 16.104C22.7338 16.104 20.621 13.9912 20.621 11.385Z" fill="#D3D3D3"/>
<path d="M24.19 17.675L26.12 12.655C26.32 12.135 26.2 11.535 25.8 11.135L21.08 6.41501C20.68 6.01501 20.09 5.89501 19.56 6.09501L14.54 8.02501C14.16 8.17501 13.81 8.39501 13.52 8.68501L2.42 19.785C1.86 20.345 1.86 21.245 2.42 21.795L10.42 29.795C10.98 30.355 11.88 30.355 12.43 29.795L23.53 18.695C23.82 18.405 24.04 18.065 24.19 17.675ZM19.21 13.015C18.52 12.325 18.52 11.215 19.21 10.525C19.9 9.83501 21.01 9.83501 21.7 10.525C22.39 11.215 22.39 12.325 21.7 13.015C21.01 13.695 19.89 13.695 19.21 13.015Z" fill="#FCD53F"/>
<path d="M20.45 10.015C20.9 10.015 21.35 10.185 21.69 10.535C22.38 11.225 22.38 12.335 21.69 13.025C21.35 13.365 20.9 13.545 20.45 13.545C20 13.545 19.55 13.375 19.21 13.025C18.52 12.335 18.52 11.225 19.21 10.535C19.55 10.185 20 10.015 20.45 10.015ZM20.45 9.07501C19.73 9.07501 19.05 9.35501 18.54 9.86501C17.49 10.915 17.49 12.625 18.54 13.685C19.05 14.195 19.73 14.475 20.45 14.475C21.17 14.475 21.85 14.195 22.36 13.685C23.41 12.635 23.41 10.925 22.36 9.86501C21.85 9.35501 21.17 9.07501 20.45 9.07501Z" fill="#F8312F"/>
<path d="M21.13 10.876C21.4111 10.876 21.6389 11.1039 21.6389 11.385C21.6389 12.3365 21.9998 13.2851 22.7199 14.0051C23.0027 14.2879 23.3184 14.5152 23.6476 14.6798L23.6499 14.6809C24.3452 15.033 25.1302 15.1569 25.8896 15.0509C26.168 15.0121 26.4252 15.2063 26.464 15.4847C26.5029 15.763 26.3087 16.0202 26.0303 16.0591C25.0702 16.193 24.0756 16.0371 23.1912 15.5896C22.7609 15.3743 22.357 15.0818 22.0001 14.7249C21.0801 13.8049 20.621 12.5934 20.621 11.385C20.621 11.1039 20.8489 10.876 21.13 10.876Z" fill="#D3D3D3"/>
</svg>

<svg xmlns="http://www.w3.org/2000/svg" width="32" height="32" fill="none"><path fill="#D3D3D3" d="M25.34 7.684a3.701 3.701 0 1 0 0 7.402 3.701 3.701 0 0 0 0-7.402Zm-4.719 3.701a4.719 4.719 0 1 1 9.438 0 4.719 4.719 0 0 1-9.438 0Z"/><path fill="#FCD53F" d="m24.19 17.675 1.93-5.02c.2-.52.08-1.12-.32-1.52l-4.72-4.72c-.4-.4-.99-.52-1.52-.32l-5.02 1.93c-.38.15-.73.37-1.02.66l-11.1 11.1c-.56.56-.56 1.46 0 2.01l8 8c.56.56 1.46.56 2.01 0l11.1-11.1c.29-.29.51-.63.66-1.02Zm-4.98-4.66c-.69-.69-.69-1.8 0-2.49.69-.69 1.8-.69 2.49 0 .69.69.69 1.8 0 2.49-.69.68-1.81.68-2.49 0Z"/><path fill="#F8312F" d="M20.45 10.015c.45 0 .9.17 1.24.52.69.69.69 1.8 0 2.49-.34.34-.79.52-1.24.52-.45 0-.9-.17-1.24-.52-.69-.69-.69-1.8 0-2.49.34-.35.79-.52 1.24-.52Zm0-.94c-.72 0-1.4.28-1.91.79a2.71 2.71 0 0 0 0 3.82c.51.51 1.19.79 1.91.79s1.4-.28 1.91-.79a2.71 2.71 0 0 0 0-3.82c-.51-.51-1.19-.79-1.91-.79Z"/><path fill="#D3D3D3" d="M21.13 10.876c.281 0 .509.228.509.509a3.692 3.692 0 0 0 2.009 3.295h.002c.695.353 1.48.477 2.24.37a.509.509 0 0 1 .14 1.01 4.82 4.82 0 0 1-2.839-.47 4.71 4.71 0 0 1-2.57-4.205c0-.281.228-.509.509-.509Z"/></svg>
